X:1
T:Linque lucrum
T:Daniel Friderici
T:Source : Bicinia sacra---Rostock---J.Richelius---1642. Editor : André Vierendeels (12/07/17).
T:Notes : Original clefs : G2, G2 Editorial accidentals above the staff m 18 in S 1: "C" notated as "D" in original print
T:Linque lucrum
T:©
T:©
T:©
C:Daniel Friderici
Z:©
%%score [ 1 2 ]
L:1/8
Q:1/4=120
M:2/2
K:C
V:1 treble nm="Soprano 1" snm="S 1"
V:2 treble nm="Soprano 2" snm="S 2"
V:1
 d4 B4 | G2 G2 d2 B2 | G2 G2 d2 B2 | G2 G2 d4 | G4 g4 | e4 c2 c2 | g2 e2 c2 c2 | g2 e2 c2 c2 | %8
w: Lin- que,|lin- que lu- crum,|lin- que lu- crum|lin- que lu-|crum, lin-|que, lin- que|lu- crum, lin- que|lu- crum, lin- que|
 g2 e2 c2 c2 | g3 f e4 | d4 z2 G2 | A2 B2 c2 d2 | e4 z2 B2 | c2 d2 e2 f2 | g4 c2 cd | e4 A4 | %16
w: lu- crum, lin- que|lu- * *|crum, et|Chri- stum se- que-|re, et|Chri- stum se- que-|re ad me- li-|o- ra,|
 c2 cd e4 | A2 c2 GABG | d2 G2 z2 d2 | cdec dcBc | dBcd e^fge | fd g3 ^f/e/ f2 | g8 :: d3 c B2 G2 | %24
w: ad me- li- o-|ra vo- can- * * *|* tem vo-|can- * * * * * * *|||tem:|Cor- po- re mens|
 B2 c2 d4 | z2 A2 B2 c2 | d2 A2 B2 c2 | d2 g2 ^f3 f | g6 d2 | e3 ^f g2 e2 | d4 G2 G2 | A3 B c2 B2 | %32
w: me- li- or,|mens me- li-|or, mens me- li-|or, mens me- li-|or di-|vi- ti- is- que|Sa- lus, di-|vi- ti- is- que|
 A4 G2 g2 | f2 d2 e2 c2 | d4 G4 | z2 d2 c3 c | B2 B2 A4 | G2 d2 c3 c | B2 B2 A4 | G2 g3 ^f/e/ f2 | %40
w: Sa- lus, di-|vi- ti- is- que|Sa- lus,|di- vi- ti-|is- que Sa-|lus, di- vi- ti-|is- que Sa-||
 g8 :| %41
w: lus.|
V:2
 z4 d4 | B4 G2 G2 | d2 B2 G2 G2 | d2 B2 G2 G2 | d4 G4 | g4 e4 | c2 c2 g2 e2 | c2 c2 g2 e2 | %8
w: Lin-|que, lin- que|lu- crum, lin- que|lu- crum, lin- que|lu- crum,|lin- que,|lin- que lu- crum,|lin- que lu- crum,|
 c2 c2 g3 f | e3 d c4 | B2 G2 A2 B2 | c2 d2 e4 | z2 A2 c2 d2 | e2 f2 g4 | c2 cd e4 | A4 c2 cd | %16
w: lin- que lu- *||crum, et Chri- stum|se- que- re,|et Chri- stum|se- que- re|ad me- li- o-|ra, ad me- li-|
 e4 A4 | z2 e2 d4 | G2 d2 GABG | ABcA BAGA | BGAB cABc | d2 cB A4 | G8 :: z8 | d3 c B2 G2 | %25
w: o- ra,|vo- can-|tem, vo- can- * * *||||tem:||Cor- po- re mens|
 B2 c2 d2 A2 | B2 c2 d2 A2 | B2 c2 d4 | G2 AB c2 B2 | A4 G2 A2 | B3 c d2 B2 | c3 B A2 G2 | %32
w: me- li- or, mens|me- li- or, mens|me- li- or|di- vi- ti- is- que|Sa- lus, di-|vi- ti- is- que|Sa- * * lus,|
 z2 A2 B3 c | d2 B2 A4 | G2 G2 B3 c | d2 B2 A4 | G2 d2 c3 c | B2 B2 A4 | G2 d2 c3 c | B2 B2 A4 | %40
w: di- vi- ti-|is- que Sa-|lus, di vi- ti-|is- que Sa-|lus, di- vi- ti-|is- que Sa-|lus, di vi- ti-|is- que Sa-|
 G8 :| %41
w: lus.|

